src/images/svg/lightbulb.svg

<svg width="159" height="138" viewBox="0 0 159 138" fill="none" xmlns="http://www.w3.org/2000/svg">
<path d="M75.4554 114.148C75.7558 115.311 76.3897 116.362 77.2789 117.166L81.6351 121.111C82.3794 121.786 83.2771 122.265 84.2484 122.507C85.2196 122.748 86.2343 122.745 87.2021 122.496L98.5273 119.588C99.4951 119.34 100.386 118.854 101.121 118.174C101.855 117.495 102.411 116.642 102.738 115.692L104.655 110.137C105.046 109.003 105.096 107.778 104.799 106.613L102.985 99.5204L73.6253 107.059L75.4554 114.148ZM44.6103 67.2071C46.717 75.4113 51.6579 82.121 58.1017 86.5625C62.0285 89.2694 68.6404 95.3332 72.0254 101.011C72.0451 101.058 72.0629 101.104 72.0826 101.15L101.49 93.5992C101.485 93.5492 101.479 93.5016 101.473 93.4498C101.704 86.8431 104.576 78.344 106.713 74.08C110.22 67.0834 111.317 58.8233 109.21 50.6192C104.586 32.6115 86.3249 21.7479 68.453 26.3962C49.7466 31.2607 40.1933 50.0056 44.6103 67.2071ZM73.1119 44.1209C65.0168 46.1996 60.1342 54.5271 62.2285 62.6832C62.6482 64.3177 61.6741 65.979 60.0518 66.3956C58.4294 66.8122 56.7755 65.8257 56.3558 64.1912C53.4234 52.7715 60.2582 41.1145 71.5926 38.204C73.2149 37.7875 74.8689 38.7739 75.2886 40.4085C75.7083 42.043 74.7343 43.7043 73.1119 44.1209Z" fill="white"/>
<path d="M16.8646 82.1592C14.708 82.5279 12.6618 81.0945 12.2637 78.9431L10.9524 71.8567C10.5523 69.6945 11.9704 67.6154 14.1304 67.2034C20.2222 66.0415 31.7197 63.8597 35.8072 63.1594C35.9924 66.1926 36.8656 71.9045 40.2523 78.1582C35.3087 79.0053 23.1405 81.0861 16.8646 82.1592Z" fill="url(#paint0_linear)"/>
<path d="M40.7776 111.692C39.285 113.346 36.7342 113.451 35.1013 111.935L29.9325 107.137C28.3061 105.627 28.2184 103.083 29.739 101.467C34.0302 96.9057 42.1179 88.3135 45.0389 85.2399C48.2675 88.5661 51.3531 91.3355 56.3532 94.1215C53.7793 97.2464 45.2107 106.779 40.7776 111.692Z" fill="url(#paint1_linear)"/>
<path d="M40.7776 111.692C39.285 113.346 36.7342 113.451 35.1013 111.935L29.9325 107.137C28.3061 105.627 28.2184 103.083 29.739 101.467C34.0302 96.9057 42.1179 88.3135 45.0389 85.2399C48.2675 88.5661 51.3531 91.3355 56.3532 94.1215C53.7793 97.2464 45.2107 106.779 40.7776 111.692Z" fill="url(#paint2_linear)"/>
<path d="M15.1153 45.7306C13.0202 44.9684 11.9561 42.6427 12.7441 40.5572L15.2431 33.9438C16.0246 31.8756 18.3324 30.8326 20.3992 31.6177C26.2789 33.8511 37.4235 38.0918 41.4037 39.6562C38.5923 44.6716 37.6349 47.419 36.208 53.4563C31.3407 51.6401 20.794 47.7966 15.1153 45.7306Z" fill="url(#paint3_linear)"/>
<path d="M140.727 50.3538C142.795 49.6379 143.897 47.3959 143.209 45.319L140.944 38.4775C140.253 36.39 138.009 35.2513 135.917 35.9309C130.019 37.8478 118.893 41.4753 114.974 42.831C116.273 45.5781 118.26 51.0041 118.305 58.1158C123.045 56.4763 134.711 52.4372 140.727 50.3538Z" fill="url(#paint4_linear)"/>
<path d="M134.001 87.7537C136.106 88.4841 138.392 87.347 139.092 85.2321L141.31 78.5373C142.008 76.4307 140.859 74.1593 138.748 73.4756C132.79 71.5461 121.563 67.9134 117.523 66.6274C116.296 71.0976 114.927 75.011 111.887 79.8613C115.648 81.3595 127.75 85.5845 134.001 87.7537Z" fill="url(#paint5_linear)"/>
<path d="M134.001 87.7537C136.106 88.4841 138.392 87.347 139.092 85.2321L141.31 78.5373C142.008 76.4307 140.859 74.1593 138.748 73.4756C132.79 71.5461 121.563 67.9134 117.523 66.6274C116.296 71.0976 114.927 75.011 111.887 79.8613C115.648 81.3595 127.75 85.5845 134.001 87.7537Z" fill="url(#paint6_linear)"/>
<path d="M124.709 17.5891C126.178 15.9118 125.99 13.3611 124.294 11.9133L118.918 7.32203C117.237 5.88625 114.712 6.08415 113.279 7.76787C109.203 12.5578 101.48 21.6432 98.7464 24.9317C103.626 27.9721 105.789 29.9184 109.948 34.5213C113.338 30.5847 120.728 22.1354 124.709 17.5891Z" fill="url(#paint7_linear)"/>
<defs>
<linearGradient id="paint0_linear" x1="11.6324" y1="75.5312" x2="38.8349" y2="70.4978" gradientUnits="userSpaceOnUse">
<stop offset="0.234375" stop-color="white"/>
<stop offset="1" stop-color="white" stop-opacity="0"/>
</linearGradient>
<linearGradient id="paint1_linear" x1="32.5252" y1="109.544" x2="51.2439" y2="89.3787" gradientUnits="userSpaceOnUse">
<stop offset="0.177083" stop-color="white"/>
<stop offset="1" stop-color="white" stop-opacity="0"/>
</linearGradient>
<linearGradient id="paint2_linear" x1="32.5252" y1="109.544" x2="51.2439" y2="89.3787" gradientUnits="userSpaceOnUse">
<stop offset="0.177083" stop-color="white"/>
<stop offset="1" stop-color="white" stop-opacity="0"/>
</linearGradient>
<linearGradient id="paint3_linear" x1="13.9852" y1="37.2729" x2="38.7825" y2="46.6429" gradientUnits="userSpaceOnUse">
<stop offset="0.171875" stop-color="white"/>
<stop offset="1" stop-color="white" stop-opacity="0"/>
</linearGradient>
<linearGradient id="paint4_linear" x1="142.119" y1="42.025" x2="115.856" y2="50.7202" gradientUnits="userSpaceOnUse">
<stop offset="0.260417" stop-color="white"/>
<stop offset="1" stop-color="white" stop-opacity="0"/>
</linearGradient>
<linearGradient id="paint5_linear" x1="140.198" y1="81.8953" x2="114.079" y2="73.2435" gradientUnits="userSpaceOnUse">
<stop offset="0.260417" stop-color="white"/>
<stop offset="1" stop-color="white" stop-opacity="0"/>
</linearGradient>
<linearGradient id="paint6_linear" x1="140.198" y1="81.8953" x2="114.079" y2="73.2435" gradientUnits="userSpaceOnUse">
<stop offset="0.260417" stop-color="white"/>
<stop offset="1" stop-color="white" stop-opacity="0"/>
</linearGradient>
<linearGradient id="paint7_linear" x1="121.625" y1="9.6332" x2="104.409" y2="29.7912" gradientUnits="userSpaceOnUse">
<stop offset="0.182292" stop-color="white"/>
<stop offset="1" stop-color="white" stop-opacity="0"/>
</linearGradient>
</defs>
</svg>

<svg width="159" height="138" fill="none" xmlns="http://www.w3.org/2000/svg"><path d="M75.455 114.148a6.14 6.14 0 001.824 3.018l4.356 3.945a6.077 6.077 0 002.613 1.396 6.027 6.027 0 002.954-.011l11.325-2.908a6.02 6.02 0 002.594-1.414 6.074 6.074 0 001.617-2.482l1.917-5.555a6.15 6.15 0 00.144-3.524l-1.814-7.093-29.36 7.539 1.83 7.089zM44.61 67.208a33.557 33.557 0 0013.492 19.355c3.927 2.706 10.538 8.77 13.923 14.448l.058.139 29.407-7.55-.017-.15c.231-6.607 3.103-15.106 5.24-19.37a33.553 33.553 0 002.497-23.46c-4.624-18.008-22.885-28.872-40.757-24.224-18.706 4.865-28.26 23.61-23.843 40.811zM73.112 44.12C65.017 46.2 60.134 54.527 62.229 62.683c.42 1.635-.555 3.296-2.177 3.713-1.623.416-3.276-.57-3.696-2.205-2.933-11.42 3.902-23.077 15.237-25.987 1.622-.416 3.276.57 3.696 2.204.42 1.635-.555 3.296-2.177 3.713z" fill="#fff"/><path d="M16.865 82.16a3.994 3.994 0 01-4.601-3.217l-1.312-7.086a3.994 3.994 0 013.178-4.654c6.092-1.162 17.59-3.343 21.677-4.044.185 3.034 1.059 8.745 4.445 15l-23.387 4z" fill="url(#paint0_linear)"/><path d="M40.778 111.692a3.986 3.986 0 01-5.677.243l-5.168-4.798a3.998 3.998 0 01-.194-5.67 6980.446 6980.446 0 0115.3-16.227c3.228 3.326 6.314 6.096 11.314 8.882-2.574 3.124-11.142 12.657-15.575 17.57z" fill="url(#paint1_linear)"/><path d="M40.778 111.692a3.986 3.986 0 01-5.677.243l-5.168-4.798a3.998 3.998 0 01-.194-5.67 6980.446 6980.446 0 0115.3-16.227c3.228 3.326 6.314 6.096 11.314 8.882-2.574 3.124-11.142 12.657-15.575 17.57z" fill="url(#paint2_linear)"/><path d="M15.115 45.73a3.998 3.998 0 01-2.37-5.173l2.498-6.613a3.995 3.995 0 015.156-2.326c5.88 2.233 17.024 6.474 21.005 8.038-2.812 5.016-3.77 7.763-5.196 13.8-4.867-1.816-15.414-5.66-21.093-7.725z" fill="url(#paint3_linear)"/><path d="M140.727 50.354a3.993 3.993 0 002.482-5.035l-2.265-6.842a3.994 3.994 0 00-5.027-2.546c-5.898 1.917-17.024 5.544-20.943 6.9 1.299 2.747 3.286 8.173 3.331 15.285l22.422-7.762z" fill="url(#paint4_linear)"/><path d="M134.001 87.754a3.985 3.985 0 005.091-2.522l2.218-6.695a3.997 3.997 0 00-2.562-5.061 7031.603 7031.603 0 00-21.225-6.849c-1.227 4.47-2.596 8.384-5.636 13.234 3.761 1.498 15.863 5.724 22.114 7.893z" fill="url(#paint5_linear)"/><path d="M134.001 87.754a3.985 3.985 0 005.091-2.522l2.218-6.695a3.997 3.997 0 00-2.562-5.061 7031.603 7031.603 0 00-21.225-6.849c-1.227 4.47-2.596 8.384-5.636 13.234 3.761 1.498 15.863 5.724 22.114 7.893z" fill="url(#paint6_linear)"/><path d="M124.709 17.59a3.997 3.997 0 00-.415-5.677l-5.376-4.591a3.995 3.995 0 00-5.639.446c-4.076 4.79-11.799 13.875-14.533 17.164 4.88 3.04 7.043 4.986 11.202 9.59 3.39-3.937 10.78-12.387 14.761-16.933z" fill="url(#paint7_linear)"/><defs><linearGradient id="paint0_linear" x1="11.632" y1="75.531" x2="38.835" y2="70.498" gradientUnits="userSpaceOnUse"><stop offset=".234" stop-color="#fff"/><stop offset="1" stop-color="#fff" stop-opacity="0"/></linearGradient><linearGradient id="paint1_linear" x1="32.525" y1="109.544" x2="51.244" y2="89.379" gradientUnits="userSpaceOnUse"><stop offset=".177" stop-color="#fff"/><stop offset="1" stop-color="#fff" stop-opacity="0"/></linearGradient><linearGradient id="paint2_linear" x1="32.525" y1="109.544" x2="51.244" y2="89.379" gradientUnits="userSpaceOnUse"><stop offset=".177" stop-color="#fff"/><stop offset="1" stop-color="#fff" stop-opacity="0"/></linearGradient><linearGradient id="paint3_linear" x1="13.985" y1="37.273" x2="38.782" y2="46.643" gradientUnits="userSpaceOnUse"><stop offset=".172" stop-color="#fff"/><stop offset="1" stop-color="#fff" stop-opacity="0"/></linearGradient><linearGradient id="paint4_linear" x1="142.119" y1="42.025" x2="115.856" y2="50.72" gradientUnits="userSpaceOnUse"><stop offset=".26" stop-color="#fff"/><stop offset="1" stop-color="#fff" stop-opacity="0"/></linearGradient><linearGradient id="paint5_linear" x1="140.198" y1="81.895" x2="114.079" y2="73.243" gradientUnits="userSpaceOnUse"><stop offset=".26" stop-color="#fff"/><stop offset="1" stop-color="#fff" stop-opacity="0"/></linearGradient><linearGradient id="paint6_linear" x1="140.198" y1="81.895" x2="114.079" y2="73.243" gradientUnits="userSpaceOnUse"><stop offset=".26" stop-color="#fff"/><stop offset="1" stop-color="#fff" stop-opacity="0"/></linearGradient><linearGradient id="paint7_linear" x1="121.625" y1="9.633" x2="104.409" y2="29.791" gradientUnits="userSpaceOnUse"><stop offset=".182" stop-color="#fff"/><stop offset="1" stop-color="#fff" stop-opacity="0"/></linearGradient></defs></svg>
